packages/core/src/svgs/tokens/mono/NORD.svg

<svg width="24" height="24" viewBox="0 0 24 24" fill="none" xmlns="http://www.w3.org/2000/svg">
<path d="M21.748 12.4464C21.8276 12.3716 21.8909 12.2814 21.9343 12.1811C21.9776 12.0809 22 11.9729 22 11.8637C22 11.7543 21.9776 11.6463 21.9343 11.5461C21.8909 11.4458 21.8276 11.3556 21.748 11.2808L12.6056 2.52703C12.4406 2.37278 12.2231 2.28699 11.9971 2.28699C11.7713 2.28699 11.5537 2.37278 11.3886 2.52703L2.25201 11.2808C2.17244 11.3556 2.10905 11.4458 2.0657 11.5461C2.02236 11.6463 2 11.7543 2 11.8637C2 11.9729 2.02236 12.0809 2.0657 12.1811C2.10905 12.2814 2.17244 12.3716 2.25201 12.4464L3.56621 13.7036C3.89763 14.0235 4.44616 14.0235 4.78329 13.7036L11.3886 7.37244C11.554 7.21655 11.7727 7.12973 12.0001 7.12973C12.2272 7.12973 12.446 7.21655 12.6114 7.37244L19.2282 13.6921C19.5652 14.0178 20.1081 14.0178 20.4452 13.6921L21.748 12.4464Z" fill="white"/>
<path d="M6.53198 16.5947C6.45389 16.5167 6.39193 16.4241 6.34967 16.3222C6.3074 16.2202 6.28564 16.1109 6.28564 16.0005C6.28564 15.8901 6.3074 15.7808 6.34967 15.6789C6.39193 15.5769 6.45389 15.4842 6.53198 15.4063L11.4059 10.5323C11.484 10.4541 11.5766 10.3921 11.6786 10.3499C11.7806 10.3076 11.8899 10.2859 12.0003 10.2859C12.1105 10.2859 12.2199 10.3076 12.3219 10.3499C12.4239 10.3921 12.5165 10.4541 12.5945 10.5323L17.4685 15.4063C17.7942 15.732 17.7942 16.2634 17.4685 16.5947L12.5945 21.4687C12.2688 21.7944 11.7374 21.7944 11.4059 21.4687L6.53198 16.5947Z" fill="white"/>
</svg>

<svg xmlns="http://www.w3.org/2000/svg" width="24" height="24" fill="none" viewBox="0 0 24 24">
    <path fill="#fff" d="M21.748 12.446a.8.8 0 0 0 0-1.165l-9.142-8.754a.89.89 0 0 0-1.217 0l-9.137 8.754a.8.8 0 0 0 0 1.165l1.314 1.258c.332.32.88.32 1.217 0l6.606-6.332a.89.89 0 0 1 1.222 0l6.617 6.32a.88.88 0 0 0 1.217 0z"/>
    <path fill="#fff" d="M6.532 16.595a.84.84 0 0 1 0-1.189l4.874-4.874a.84.84 0 0 1 1.188 0l4.874 4.874a.845.845 0 0 1 0 1.189l-4.873 4.874a.845.845 0 0 1-1.19 0z"/>
</svg>
